X:1
T:Title
%%score { ( 1 4 ) | ( 2 3 ) }
L:1/8
M:3/4
K:Eb
V:1 treble nm="Grand Piano"
V:4 treble 
V:2 bass 
V:3 bass 
V:1
 z2 z2[Q:1/4=100] G>F | [G,E]3 B [CA]>E | [B,G]2 [A,F]2 F>=E | [A,F]3 A [DB]>A |[M:2/4] [B,G]4 | %5
[M:1/4] G>F |[M:3/4] [G,E]3 B [CA]>E | [B,G]2 [A,F]2 F>=E | [B,F]3 A [B,D]>F |[M:2/4] [G,E]4 | %10
[M:1/4] z2 |[M:3/4] d4 z2 | [Ac]2 [GB]2 z2 | B4 z2 | z B, B,2 B>c | d-[Ad-] [Ad]c [GB]>[FA] | %16
 z2 [GB]2 z2 | B4 z2 |[M:2/4] E4 |] %19
V:2
 z2 z2 B,>A, | E,,B,, z D z z/ G,/ | B,,B,, B,,B,, A,>G, | B,,B,, z C z z/ C/ |[M:2/4] E,B,, E,,2 | %5
[M:1/4] B,>A, |[M:3/4] E,,B,, z D z z/ G,/ | B,,B,, B,,B,, A,>G, | B,,B,, z C z z/ A,/ | %9
[M:2/4] E,B,, E,,2 |[M:1/4][K:treble] B>c |[M:3/4][K:bass] [B,,B,][B,,B,] z A [B,,B,]2 | %12
 [E,E]F, E,E, z2 | [B,,F,][B,,G,] z F [B,,B,]2 | [E,B,]E, E,2 z2 | [B,,B,][B,,B,] z A [B,,B,]2 | %16
 [E,E][E,E] [E,E]E, z2 | [B,,F,][B,,G,] [B,,B,][B,,B,] [B,,A,][B,,A,] | %18
[M:2/4] [E,G,][A,,A,] [E,G,]2 |] %19
V:3
 x6 | z2 E,2 E,2 | x6 | z2 B,,2 B,,2 |[M:2/4] x4 |[M:1/4] x2 |[M:3/4] z2 E,2 E,2 | x6 | %8
 z2 B,,2 B,,2 |[M:2/4] x4 |[M:1/4][K:treble] x2 |[M:3/4][K:bass] z2 [B,,B,]2 z2 | x6 | %13
 z2 [B,,B,]2 z2 | x6 | z2 [B,,B,]2 z2 | x6 | x6 |[M:2/4] x4 |] %19
V:4
 x6 | x6 | x6 | x6 |[M:2/4] x4 |[M:1/4] x2 |[M:3/4] x6 | x6 | x6 |[M:2/4] x4 |[M:1/4] x2 | %11
[M:3/4] AA Ac [GB]>[FA] | z E EB, G>G | DE GA [EG]>[DF] | [EG]4 z2 | .A2 z2 z2 | [Ac]2 z B, G>G | %17
 DE G[FA] [CA][DF] |[M:2/4] z C B,2 |] %19

